X: 29999
T: Off Go Those St. John's Girls
R: polka
M: 2/4
K: Dmajor
ff ge|dd A2|ff ge|d4|
ff ge|dd A>B|=cd BA|1 G4:|2 G2 FG||
A2 AB|G2 FG|AA AB|G2 FG|
A2 A2|g2 f2|ed ef|d2 d2||

